assets/fc/fc-diploma-1.svg

<svg xmlns="http://www.w3.org/2000/svg" width="100%" height="100%" viewBox="0 0 48 48"><path fill="#E8EAF6" d="M4 9h40v30H4z"/><g fill="#5C6BC0"><path d="M30 34h2.8l-5-5-2.8 2.8 5 5zM18 34h-2.8l5-5 2.8 2.8-5 5z"/></g><path fill="#9FA8DA" d="M11 15h26v4H11zM24 23c-2.8 0-5 2.2-5 5s2.2 5 5 5 5-2.2 5-5-2.2-5-5-5zm0 8c-1.7 0-3-1.3-3-3s1.3-3 3-3 3 1.3 3 3-1.3 3-3 3z"/><path fill="#9FA8DA" d="M3 8v32h42V8H3zm40 27c-1.7 0-3 1.3-3 3H8c0-1.7-1.3-3-3-3V13c1.7 0 3-1.3 3-3h32c0 1.7 1.3 3 3 3v22z"/></svg>

<svg xmlns="http://www.w3.org/2000/svg" width="100%" height="100%" viewBox="0 0 48 48"><path fill="#E8EAF6" d="M4 9H44V39H4z"/><g fill="#5C6BC0"><path d="M30 34L32.8 34 27.8 29 25 31.8 30 36.8zM18 34L15.2 34 20.2 29 23 31.8 18 36.8z"/></g><path fill="#9FA8DA" d="M11 15H37V19H11zM24 23c-2.8 0-5 2.2-5 5s2.2 5 5 5 5-2.2 5-5S26.8 23 24 23zM24 31c-1.7 0-3-1.3-3-3s1.3-3 3-3 3 1.3 3 3S25.7 31 24 31z"/><path fill="#9FA8DA" d="M3,8v32h42V8H3z M43,35c-1.7,0-3,1.3-3,3H8c0-1.7-1.3-3-3-3V13c1.7,0,3-1.3,3-3h32c0,1.7,1.3,3,3,3V35z"/></svg>
